packages/kaspersky-hexa-ui-icons/src/iconsSVGs/32/Hook.svg

<svg xmlns="http://www.w3.org/2000/svg" width="32" height="32" fill="none" viewBox="0 0 32 32"><path fill="#000" fill-rule="evenodd" d="M21 2c.5523 0 1 .4477 1 1v7.126c1.7252.4441 3 2.0102 3 3.874s-1.2748 3.4299-3 3.874V22.5c0 4.1421-3.3579 7.5-7.5 7.5S7 26.6421 7 22.5V16a.9999.9999 0 0 1 1.7809-.6247l4 5c.345.4313.2751 1.0606-.1562 1.4056s-1.0606.2751-1.4056-.1562L9 18.8508V22.5c0 3.0376 2.4624 5.5 5.5 5.5s5.5-2.4624 5.5-5.5v-4.626c-1.7252-.4441-3-2.0102-3-3.874s1.2748-3.4299 3-3.874V3c0-.5523.4477-1 1-1m-2 12c0-1.1046.8954-2 2-2s2 .8954 2 2-.8954 2-2 2-2-.8954-2-2"/></svg>

<svg width="32" height="32" viewBox="0 0 32 32" fill="none" xmlns="http://www.w3.org/2000/svg">
<path fill-rule="evenodd" clip-rule="evenodd" d="M21 2C21.5523 2 22 2.44772 22 3V10.126C23.7252 10.5701 25 12.1362 25 14C25 15.8638 23.7252 17.4299 22 17.874V22.5C22 26.6421 18.6421 30 14.5 30C10.3579 30 7 26.6421 7 22.5V16C7 15.5753 7.26825 15.1969 7.66899 15.0564C8.06974 14.9158 8.51557 15.0437 8.78087 15.3753L12.7809 20.3753C13.1259 20.8066 13.056 21.4359 12.6247 21.7809C12.1934 22.1259 11.5641 22.056 11.2191 21.6247L9 18.8508V22.5C9 25.5376 11.4624 28 14.5 28C17.5376 28 20 25.5376 20 22.5V17.874C18.2748 17.4299 17 15.8638 17 14C17 12.1362 18.2748 10.5701 20 10.126V3C20 2.44772 20.4477 2 21 2ZM19 14C19 12.8954 19.8954 12 21 12C22.1046 12 23 12.8954 23 14C23 15.1046 22.1046 16 21 16C19.8954 16 19 15.1046 19 14Z" fill="black"/>
</svg>
